X: 1
T: Polka
O: Trad Finland
Z: John Chambers <jc@trillian.mit.edu>
N: From a transcription by Karen Myers
M: C|
L: 1/8
K: Am
|: "Am"E2AA A2B2 | c2e2 edc2 | "E7"B2e2 edcB |1,3.A2"Am"c2 edc2 :|2,4.A2"Am"A2 A2z2 :|
|: "Dm"a3g f2f2 | "Am"efed c4 | "E7"B3c ddcB |1,3.c"Am"Bcd "A7"e2e2 :|2,4.A2"Am"A2 A2z2 :|
